X: 677
T: Eviç Aranağme (Senginsemâî)
C: ?
O: Turkey
F: http://compmusic.upf.edu/node/140
N: evic--aranagme--senginsemai--1--
N: makam= evic
N: form= aranagme
N: usul= senginsemai = 6/4
M: 6/4
L: 1/16
K: C _1/4B ^f ^c 
Q: 1/4=72
%%MIDI tuningsystem comma53
d4 f4 fgf^3/4e d3/2c/de f3e/d/ =c/B/A/G/F2  | \
w:  ARANAĞME  | 
^3/4efga fgef d2ag =f=e2d {e}c8  | 
w:   | 
g4 e4 c4 dcdB A8  | (3A2B2c2 (3d2^1/4c2B2 A3G AGF^3/4E F4 z4  | 
w:   |   | 
d4 f4 fgf^3/4e d3/2c/de f3e/d/ =c/B/A/G/F2  | \
w:  ARANAĞME  | 
^3/4efga fgef d2ag =f=e2d {e}c8  | 
w:   | 
g4 e4 c4 dcdB A8  | (3A2B2c2 (3d2^1/4c2B2 A3G AGF^3/4E F4 z4  | 
w:   |   | 
|


